X: 9554
T: Dave Collins'
R: reel
M: 4/4
K: Cmajor
|:cA|G~E3 DECD|(3EFG AF GEDF|(3EFG cd edcd|(3efe df edcA|
G~E3 DECD|(3EFG AF GEDF|EGcd edcA|GEDE C2:|
|:cd|e2ge dAcd|ec (3ABc dcAB|cBcA GAcd|ecge d2cd|
e2ge dAcd|ec (3ABc dcAB|cBcA GAcA|1 GEDE C2:|2 GEDE C2||

